azure-docs/azure-resource-manager.svg

<svg xmlns="http://www.w3.org/2000/svg" viewBox="0 0 50 50"><g fill="none"><path fill="#3999C6" d="M25.047 18.647a.428.428 0 0 1-.22-.064l-14.711-8.49a.445.445 0 0 1 0-.771L24.732.887a.452.452 0 0 1 .442 0l14.714 8.495a.447.447 0 0 1 .221.382.45.45 0 0 1-.221.387l-14.619 8.433a.438.438 0 0 1-.222.063"/><path fill="#59B4D9" d="M22.932 39.284a.444.444 0 0 1-.226-.059L8.042 30.761a.436.436 0 0 1-.226-.386V13.39a.45.45 0 0 1 .226-.389.463.463 0 0 1 .448 0l14.662 8.464a.45.45 0 0 1 .218.387v16.987a.445.445 0 0 1-.218.386.44.44 0 0 1-.22.059m4.149 0a.444.444 0 0 1-.446-.445V21.962c0-.159.084-.305.22-.387l14.66-8.461a.458.458 0 0 1 .448 0c.134.08.22.227.22.385v16.877a.446.446 0 0 1-.22.386l-14.665 8.464a.401.401 0 0 1-.217.058"/><path fill="#FFF" d="M27.081 39.284a.444.444 0 0 1-.446-.445V21.962c0-.159.084-.305.22-.387l14.66-8.461a.458.458 0 0 1 .448 0c.134.08.22.227.22.385v16.877a.446.446 0 0 1-.22.386l-14.665 8.464a.401.401 0 0 1-.217.058" opacity=".5"/><path fill="#7A7A7A" d="M9.558 41.171a1.45 1.45 0 0 1-.726-.195l-6.845-3.952C.835 36.358 0 34.911 0 33.582V8.418c0-1.329.835-2.777 1.987-3.441l6.845-3.952a1.455 1.455 0 0 1 1.455 2.519L3.442 7.496c-.243.141-.532.641-.532.922v25.164c0 .281.289.782.532.922l6.845 3.952a1.454 1.454 0 0 1-.729 2.715zM40.442.829c.247 0 .497.063.726.195l6.845 3.952C49.165 5.642 50 7.089 50 8.418v25.164c0 1.329-.835 2.777-1.987 3.441l-6.845 3.952a1.455 1.455 0 0 1-1.455-2.519l6.845-3.952c.243-.141.532-.641.532-.922V8.418c0-.281-.289-.782-.532-.922l-6.845-3.952a1.454 1.454 0 0 1 .729-2.715z"/></g></svg>

<svg xmlns="http://www.w3.org/2000/svg" id="azure-resource-manager" viewBox="0 0 50 50">
  <g fill="none">
    <path fill="#3999C6" d="M25.047,18.647 C24.969,18.647 24.897,18.624 24.827,18.583 L10.116,10.093 C9.976,10.013 9.893,9.865 9.893,9.704 C9.893,9.548 9.976,9.4 10.116,9.322 L24.732,0.887 C24.871,0.81 25.041,0.81 25.174,0.887 L39.888,9.382 C40.021,9.46 40.109,9.606 40.109,9.764 C40.109,9.927 40.021,10.072 39.888,10.151 L25.269,18.584 C25.2,18.624 25.126,18.647 25.047,18.647"/>
    <path fill="#59B4D9" d="M22.932 39.284C22.852 39.284 22.774 39.265 22.706 39.225L8.042 30.761C7.9 30.682 7.816 30.537 7.816 30.375L7.816 13.39C7.816 13.231 7.9 13.085 8.042 13.001 8.176 12.924 8.348 12.924 8.49 13.001L23.152 21.465C23.288 21.547 23.37 21.693 23.37 21.852L23.37 38.839C23.37 39.002 23.287 39.144 23.152 39.225 23.079 39.266 23.006 39.284 22.932 39.284M27.081 39.284C27.006 39.284 26.929 39.265 26.855 39.225 26.719 39.144 26.635 39.002 26.635 38.839L26.635 21.962C26.635 21.803 26.719 21.657 26.855 21.575L41.515 13.114C41.657 13.036 41.823 13.036 41.963 13.114 42.097 13.194 42.183 13.341 42.183 13.499L42.183 30.376C42.183 30.538 42.098 30.682 41.963 30.762L27.298 39.226C27.237 39.266 27.158 39.284 27.081 39.284"/>
    <path fill="#FFF" d="M27.081,39.284 C27.006,39.284 26.929,39.265 26.855,39.225 C26.719,39.144 26.635,39.002 26.635,38.839 L26.635,21.962 C26.635,21.803 26.719,21.657 26.855,21.575 L41.515,13.114 C41.657,13.036 41.823,13.036 41.963,13.114 C42.097,13.194 42.183,13.341 42.183,13.499 L42.183,30.376 C42.183,30.538 42.098,30.682 41.963,30.762 L27.298,39.226 C27.237,39.266 27.158,39.284 27.081,39.284" opacity=".5"/>
    <path fill="#7A7A7A" d="M9.558 41.171C9.311 41.171 9.061 41.108 8.832 40.976L1.987 37.024C.835 36.358 0 34.911 0 33.582L0 8.418C0 7.089.835 5.641 1.987 4.977L8.832 1.025C9.529.624 10.418.862 10.819 1.557 11.221 2.253 10.982 3.142 10.287 3.544L3.442 7.496C3.199 7.637 2.91 8.137 2.91 8.418L2.91 33.582C2.91 33.863 3.199 34.364 3.442 34.504L10.287 38.456C10.983 38.858 11.221 39.747 10.819 40.443 10.55 40.91 10.061 41.171 9.558 41.171zM40.442.829C40.689.829 40.939.892 41.168 1.024L48.013 4.976C49.165 5.642 50 7.089 50 8.418L50 33.582C50 34.911 49.165 36.359 48.013 37.023L41.168 40.975C40.471 41.376 39.582 41.138 39.181 40.443 38.779 39.747 39.018 38.858 39.713 38.456L46.558 34.504C46.801 34.363 47.09 33.863 47.09 33.582L47.09 8.418C47.09 8.137 46.801 7.636 46.558 7.496L39.713 3.544C39.017 3.142 38.779 2.253 39.181 1.557 39.45 1.09 39.939.829 40.442.829z"/>
  </g>
</svg>
